usr/share/icons/biglinux-icons-material/scalable/mimetypes/application-x-sogouskin.svg

<svg width="24" height="24" viewBox="0 0 24 24" fill="none" xmlns="http://www.w3.org/2000/svg">
<rect x="1" y="1" width="22" height="22" rx="6.6" fill="url(#paint0_radial_21_361)"/>
<path d="M7.05 15.3V18.8751C7.05 19.0274 7.17265 19.1501 7.325 19.1501H8.975C9.12735 19.1501 9.25 19.0274 9.25 18.8751V15.3H7.05ZM7.6 17.5H8.7V18.6H7.6V17.5Z" fill="#FAFAFA"/>
<path d="M8.15089 1.00009V2.10009H9.25089V1.00009H8.15089ZM8.15089 2.10009H7.0509V3.20009H8.15089V2.10009ZM8.15089 3.20009V4.30009H9.25089V3.20009H8.15089ZM8.15089 4.30009H7.0509V5.40009H8.15089V4.30009ZM8.15089 5.40009V6.50009H9.25089V5.40009H8.15089ZM8.15089 6.50009H7.0509V7.60009H8.15089V6.50009ZM8.15089 7.60009V8.70009H9.25089V7.60009H8.15089ZM8.15089 8.70009H7.0509V9.80009H8.15089V8.70009ZM8.15089 9.80009V10.9001H9.25089V9.80009H8.15089ZM8.15089 10.9001H7.0509V12.0001H8.15089V10.9001ZM8.15089 12.0001V13.1001H9.25089V12.0001H8.15089ZM8.15089 13.1001H7.0509V14.2001H8.15089V13.1001ZM8.15089 14.2001V15.3001H9.25089V14.2001H8.15089Z" fill="#FAFAFA"/>
<path opacity="0.75" d="M15.7479 11.0021C15.4502 11.0079 15.1548 11.0196 14.9618 11.0486C14.0919 11.1812 13.3966 11.4859 12.9477 11.9301C12.7115 12.1591 12.5429 12.4488 12.4605 12.7674C12.4082 12.9697 12.3907 13.436 12.4454 13.6151C12.6279 14.2419 13.0605 14.7234 13.8757 15.2083C14.2223 15.4118 14.4897 15.5467 15.2596 15.8944C16.1841 16.3095 16.4655 16.477 16.5969 16.6851C16.648 16.77 16.6666 16.8131 16.6597 16.9142C16.6458 17.0747 16.5655 17.1549 16.3771 17.2236C16.2503 17.2678 16.2062 17.2817 15.9678 17.2817C15.5317 17.277 15.1479 17.1957 14.6153 17.0061C14.2448 16.8766 13.8911 16.7033 13.5617 16.4898C13.2536 16.2886 13.2292 16.2805 13.1373 16.3293C13.0675 16.3677 12.5651 16.8154 12.1942 17.1782C11.9523 17.4143 11.9488 17.4619 12.1151 17.6248C12.2802 17.7876 12.7431 18.1306 12.9966 18.2783C13.271 18.4399 13.4559 18.5307 13.7664 18.6446C14.2874 18.8377 14.7246 18.9179 15.5433 18.9877C15.7293 19.0028 16.3945 19.0051 16.6282 18.9877C17.9097 18.8853 18.9552 18.4667 19.5052 17.8539C19.7029 17.6364 19.8215 17.4503 19.9146 17.1887C20.0053 16.9363 20.0285 16.4375 19.9611 16.1351C19.8506 15.6455 19.5564 15.2025 19.0808 14.8292C18.604 14.4547 18.1203 14.2059 16.9585 13.7407C16.1468 13.4175 15.8421 13.2453 15.763 13.0651C15.72 12.9686 15.7456 12.7976 15.8096 12.7325C15.9375 12.6034 16.184 12.5569 16.5026 12.5953C17.0957 12.6686 17.8586 12.9407 18.5308 13.3163C18.661 13.3884 18.7866 13.4489 18.8133 13.4547C18.9227 13.4826 18.9878 13.4396 19.4273 12.9384C19.9657 12.322 19.9599 12.3464 19.6634 12.136C18.7796 11.5034 17.7562 11.1359 16.5817 11.0254C16.3043 11.0035 16.026 10.9957 15.7479 11.0021Z" fill="white"/>
<defs>
<radialGradient id="paint0_radial_21_361" cx="0" cy="0" r="1" gradientUnits="userSpaceOnUse" gradientTransform="translate(17.5 1) rotate(116.565) scale(24.5967)">
<stop stop-color="#FFA685"/>
<stop offset="1" stop-color="#E66A3C"/>
</radialGradient>
</defs>
</svg>

<svg xmlns="http://www.w3.org/2000/svg" width="24" height="24" fill="none"><rect width="22" height="22" x="1" y="1" fill="url(#a)" rx="6.6"/><path fill="#FAFAFA" d="M7.05 15.3v3.575c0 .152.123.275.275.275h1.65a.274.274 0 0 0 .275-.275V15.3h-2.2Zm.55 2.2h1.1v1.1H7.6v-1.1ZM8.15 1v1.1h1.1V1h-1.1Zm0 1.1h-1.1v1.1h1.1V2.1Zm0 1.1v1.1h1.1V3.2h-1.1Zm0 1.1h-1.1v1.1h1.1V4.3Zm0 1.1v1.1h1.1V5.4h-1.1Zm0 1.1h-1.1v1.1h1.1V6.5Zm0 1.1v1.1h1.1V7.6h-1.1Zm0 1.1h-1.1v1.1h1.1V8.7Zm0 1.1v1.1h1.1V9.8h-1.1Zm0 1.1h-1.1V12h1.1v-1.1Zm0 1.1v1.1h1.1V12h-1.1Zm0 1.1h-1.1v1.1h1.1v-1.1Zm0 1.1v1.1h1.1v-1.1h-1.1Z"/><path fill="#fff" d="M15.748 11.002a6.982 6.982 0 0 0-.786.047c-.87.132-1.565.437-2.014.881a1.79 1.79 0 0 0-.488.837c-.052.203-.07.669-.015.848.183.627.615 1.108 1.43 1.593.347.204.615.339 1.385.686.924.415 1.205.583 1.337.791.051.085.07.128.063.23-.014.16-.095.24-.283.309-.127.044-.17.058-.41.058-.435-.005-.82-.086-1.352-.276a4.925 4.925 0 0 1-1.053-.516c-.308-.201-.333-.21-.425-.16-.07.038-.572.485-.943.848-.242.236-.245.284-.079.447.165.163.628.506.882.653.274.162.459.253.77.367.52.193.958.273 1.776.343.186.015.852.017 1.085 0 1.282-.103 2.327-.521 2.877-1.134.198-.218.317-.404.41-.665.09-.253.114-.752.046-1.054-.11-.49-.405-.933-.88-1.306-.477-.374-.96-.623-2.122-1.088-.812-.323-1.117-.496-1.196-.676-.043-.096-.017-.267.047-.332.127-.13.374-.176.693-.138.593.074 1.356.346 2.028.721.13.072.256.133.282.139.11.028.175-.015.614-.517.539-.616.533-.592.236-.802-.883-.633-1.907-1-3.081-1.11a8.198 8.198 0 0 0-.834-.024Z" opacity=".75"/><defs><radialGradient id="a" cx="0" cy="0" r="1" gradientTransform="rotate(116.565 8.441 5.908) scale(24.5967)" gradientUnits="userSpaceOnUse"><stop stop-color="#FFA685"/><stop offset="1" stop-color="#E66A3C"/></radialGradient></defs></svg>
